assets/Canned food/Flat/canned_food_flat.svg

<svg width="32" height="32" viewBox="0 0 32 32" fill="none" xmlns="http://www.w3.org/2000/svg">
<path d="M6.75 3.61426H24.74V10.1146L15.745 12.8716L6.75 10.1146V3.61426Z" fill="#F8312F"/>
<path d="M24.74 21V28.6122H6.75V21L15.745 16.1314L24.74 21Z" fill="#F8312F"/>
<path d="M6.52 2H24.82C25.66 2 26.34 2.68 26.34 3.52C26.34 4.36 25.66 5.04 24.82 5.04H6.52C5.68 5.04 5 4.36 5 3.52C5 2.68 5.68 2 6.52 2Z" fill="#D3D3D3"/>
<path d="M6.52 27.04H24.82C25.66 27.04 26.34 27.73 26.34 28.57C26.34 29.41 25.66 30.09 24.82 30.09H6.52C5.68 30.09 5 29.41 5 28.57C5 27.73 5.68 27.04 6.52 27.04Z" fill="#D3D3D3"/>
<path d="M21.5964 21.0601C20.1358 22.6288 18.0525 23.61 15.74 23.61C13.4275 23.61 11.3442 22.6288 9.88362 21.0601H6.75V10.0701H9.96855C11.4244 8.55379 13.472 7.60999 15.74 7.60999C18.008 7.60999 20.0556 8.55379 21.5114 10.0701H24.74V21.0601H21.5964Z" fill="#F4F4F4"/>
<path d="M17.31 12.72H14.17C11.99 12.72 10.22 14.49 10.22 16.67C10.22 18.85 11.99 20.62 14.17 20.62H17.31C19.49 20.62 21.26 18.85 21.26 16.67C21.26 14.49 19.5 12.72 17.31 12.72Z" fill="#F8312F"/>
<path d="M19.79 10.62H17.51C16.7893 10.62 16.1498 10.9577 15.7424 11.4821C15.3338 10.9634 14.7002 10.63 13.99 10.63H11.7C11.7 11.86 12.7 12.86 13.94 12.86H16.22C16.22 12.8567 16.2199 12.8533 16.2199 12.85H17.56C18.79 12.85 19.79 11.85 19.79 10.62Z" fill="#00D26A"/>
</svg>

<svg xmlns="http://www.w3.org/2000/svg" width="32" height="32" fill="none"><path fill="#F8312F" d="M6.75 3.614h17.99v6.5l-8.995 2.758-8.995-2.757v-6.5ZM24.74 21v7.612H6.75V21l8.995-4.869L24.74 21Z"/><path fill="#D3D3D3" d="M6.52 2h18.3a1.52 1.52 0 1 1 0 3.04H6.52a1.52 1.52 0 1 1 0-3.04ZM6.52 27.04h18.3c.84 0 1.52.69 1.52 1.53 0 .84-.68 1.52-1.52 1.52H6.52c-.84 0-1.52-.68-1.52-1.52s.68-1.53 1.52-1.53Z"/><path fill="#F4F4F4" d="M21.596 21.06a7.978 7.978 0 0 1-5.856 2.55 7.978 7.978 0 0 1-5.856-2.55H6.75V10.07h3.219a7.977 7.977 0 0 1 5.771-2.46c2.268 0 4.316.944 5.771 2.46h3.229v10.99h-3.144Z"/><path fill="#F8312F" d="M17.31 12.72h-3.14c-2.18 0-3.95 1.77-3.95 3.95s1.77 3.95 3.95 3.95h3.14c2.18 0 3.95-1.77 3.95-3.95s-1.76-3.95-3.95-3.95Z"/><path fill="#00D26A" d="M19.79 10.62h-2.28c-.72 0-1.36.338-1.768.862a2.227 2.227 0 0 0-1.752-.852H11.7c0 1.23 1 2.23 2.24 2.23h2.28v-.01h1.34c1.23 0 2.23-1 2.23-2.23Z"/></svg>
